Newaita-dark/.DP/22/smplayer-panel.svg

<svg xmlns="http://www.w3.org/2000/svg" xmlns:xlink="http://www.w3.org/1999/xlink" width="22px" height="22px" viewBox="0 0 22 22" version="1.1">
<g id="surface1">
<path style=" stroke:none;fill-rule:nonzero;fill:rgb(93.333334%,93.333334%,93.333334%);fill-opacity:1;" d="M 6.59375 3.605469 C 2.449219 5.996094 1.039062 11.261719 3.433594 15.40625 C 5.824219 19.550781 11.089844 20.964844 15.234375 18.570312 C 19.378906 16.179688 20.792969 10.914062 18.398438 6.765625 C 16.003906 2.621094 10.742188 1.210938 6.59375 3.605469 Z M 6.746094 5.527344 C 6.753906 5.523438 6.761719 5.519531 6.765625 5.519531 C 6.949219 5.417969 7.183594 5.480469 7.289062 5.664062 L 8.957031 8.550781 C 9.046875 8.703125 9.015625 8.898438 8.890625 9.023438 C 8.699219 9.214844 8.53125 9.429688 8.398438 9.664062 C 8.3125 9.820312 8.128906 9.894531 7.960938 9.847656 L 4.734375 8.984375 C 4.507812 8.921875 4.386719 8.679688 4.476562 8.464844 C 4.945312 7.304688 5.722656 6.300781 6.71875 5.546875 C 6.726562 5.542969 6.738281 5.535156 6.746094 5.527344 Z M 8.1875 4.695312 L 8.222656 4.679688 C 9.371094 4.191406 10.632812 4.023438 11.867188 4.195312 C 12.101562 4.226562 12.25 4.453125 12.191406 4.679688 L 11.324219 7.90625 C 11.28125 8.074219 11.125 8.195312 10.949219 8.191406 C 10.675781 8.191406 10.40625 8.226562 10.144531 8.296875 C 9.976562 8.347656 9.796875 8.273438 9.707031 8.121094 L 8.035156 5.230469 C 7.929688 5.042969 7.996094 4.800781 8.1875 4.695312 Z M 4.210938 9.859375 C 4.300781 9.808594 4.410156 9.792969 4.511719 9.820312 L 7.734375 10.683594 C 7.90625 10.730469 8.023438 10.886719 8.023438 11.0625 C 8.019531 11.335938 8.054688 11.601562 8.128906 11.863281 C 8.175781 12.035156 8.101562 12.21875 7.949219 12.304688 L 5.0625 13.972656 C 4.859375 14.089844 4.601562 14.003906 4.511719 13.789062 C 4.023438 12.640625 3.855469 11.378906 4.027344 10.140625 C 4.042969 10.027344 4.109375 9.921875 4.210938 9.859375 Z M 13.210938 4.664062 C 13.316406 4.609375 13.4375 4.601562 13.546875 4.644531 C 14.675781 5.105469 15.691406 5.863281 16.460938 6.886719 C 16.605469 7.074219 16.546875 7.339844 16.347656 7.457031 L 13.460938 9.125 C 13.304688 9.214844 13.109375 9.1875 12.988281 9.058594 C 12.796875 8.867188 12.582031 8.699219 12.347656 8.566406 C 12.191406 8.480469 12.117188 8.300781 12.160156 8.128906 L 13.027344 4.902344 C 13.054688 4.800781 13.121094 4.71875 13.210938 4.667969 Z M 9.007812 10.246094 C 9.101562 10.195312 9.210938 10.175781 9.320312 10.203125 C 9.539062 10.265625 9.667969 10.488281 9.609375 10.707031 C 9.554688 10.925781 9.328125 11.058594 9.109375 11 C 8.890625 10.941406 8.757812 10.714844 8.820312 10.496094 C 8.847656 10.386719 8.917969 10.296875 9.007812 10.246094 Z M 11.21875 9.136719 C 11.308594 9.085938 11.421875 9.066406 11.53125 9.097656 C 11.75 9.15625 11.878906 9.382812 11.820312 9.601562 C 11.761719 9.820312 11.539062 9.949219 11.316406 9.890625 C 11.15625 9.847656 11.039062 9.710938 11.015625 9.546875 C 10.996094 9.382812 11.074219 9.222656 11.21875 9.136719 Z M 5.496094 14.722656 L 8.382812 13.054688 C 8.535156 12.964844 8.730469 12.996094 8.851562 13.121094 C 9.042969 13.3125 9.257812 13.480469 9.496094 13.613281 C 9.648438 13.703125 9.726562 13.878906 9.679688 14.050781 L 8.8125 17.277344 C 8.753906 17.503906 8.507812 17.625 8.292969 17.535156 C 7.136719 17.0625 6.132812 16.289062 5.378906 15.292969 C 5.238281 15.105469 5.292969 14.839844 5.496094 14.722656 Z M 16.78125 8.207031 C 16.980469 8.089844 17.242188 8.179688 17.332031 8.390625 C 17.820312 9.539062 17.984375 10.800781 17.816406 12.035156 C 17.785156 12.269531 17.554688 12.417969 17.332031 12.359375 L 14.105469 11.496094 C 13.9375 11.449219 13.816406 11.292969 13.816406 11.117188 C 13.820312 10.847656 13.785156 10.574219 13.710938 10.316406 C 13.664062 10.144531 13.738281 9.964844 13.890625 9.875 Z M 10.316406 12.507812 C 10.40625 12.457031 10.515625 12.4375 10.628906 12.46875 C 10.847656 12.523438 10.976562 12.75 10.917969 12.96875 C 10.859375 13.191406 10.632812 13.320312 10.414062 13.257812 C 10.195312 13.203125 10.066406 12.976562 10.125 12.757812 C 10.152344 12.648438 10.226562 12.558594 10.316406 12.507812 Z M 12.578125 11.203125 C 12.828125 11.054688 13.152344 11.214844 13.191406 11.503906 C 13.230469 11.792969 12.957031 12.03125 12.675781 11.953125 C 12.515625 11.910156 12.398438 11.773438 12.375 11.609375 C 12.351562 11.445312 12.433594 11.285156 12.578125 11.203125 Z M 10.707031 14.03125 C 10.765625 14.003906 10.828125 13.984375 10.890625 13.988281 C 11.164062 13.992188 11.429688 13.957031 11.695312 13.882812 C 11.867188 13.835938 12.046875 13.90625 12.136719 14.0625 L 13.804688 16.949219 C 13.921875 17.148438 13.835938 17.410156 13.621094 17.5 C 12.46875 17.988281 11.210938 18.15625 9.972656 17.984375 C 9.742188 17.953125 9.589844 17.726562 9.652344 17.5 L 10.515625 14.277344 C 10.542969 14.179688 10.605469 14.09375 10.691406 14.042969 C 10.695312 14.039062 10.699219 14.035156 10.707031 14.03125 Z M 13.582031 12.375 C 13.671875 12.320312 13.78125 12.304688 13.882812 12.332031 L 17.105469 13.195312 C 17.332031 13.257812 17.453125 13.5 17.367188 13.714844 C 16.90625 14.84375 16.148438 15.859375 15.125 16.632812 C 14.9375 16.773438 14.671875 16.71875 14.554688 16.519531 L 12.886719 13.628906 C 12.796875 13.472656 12.824219 13.28125 12.953125 13.15625 C 13.144531 12.96875 13.3125 12.75 13.445312 12.515625 C 13.476562 12.457031 13.523438 12.410156 13.582031 12.375 Z M 13.582031 12.375 "/>
</g>
</svg>

<svg xmlns="http://www.w3.org/2000/svg" width="22" height="22"><path d="M6.594 3.605a8.618 8.618 0 0 0-3.16 11.801 8.615 8.615 0 0 0 11.8 3.164 8.62 8.62 0 0 0 3.164-11.804 8.622 8.622 0 0 0-11.804-3.16zm.156 1.922a.388.388 0 0 1 .54.137l1.667 2.887a.39.39 0 0 1-.066.472c-.196.192-.36.407-.493.641a.386.386 0 0 1-.437.184l-3.227-.864a.387.387 0 0 1-.257-.523 6.974 6.974 0 0 1 2.242-2.914c.008-.008.02-.012.031-.02zm1.438-.832l.035-.015a6.893 6.893 0 0 1 3.644-.485.388.388 0 0 1 .324.485l-.863 3.226a.39.39 0 0 1-.379.285c-.273 0-.543.036-.804.106a.377.377 0 0 1-.438-.18L8.039 5.23a.388.388 0 0 1 .149-.535zM4.21 9.863c.09-.054.2-.07.3-.043l3.223.864c.172.046.29.203.29.379a2.75 2.75 0 0 0 .105.8.385.385 0 0 1-.18.442l-2.886 1.668a.386.386 0 0 1-.551-.184 6.893 6.893 0 0 1-.485-3.644.381.381 0 0 1 .184-.282zm9-5.195a.391.391 0 0 1 .336-.023 6.936 6.936 0 0 1 2.918 2.242.39.39 0 0 1-.117.57L13.46 9.125a.385.385 0 0 1-.473-.066 3.008 3.008 0 0 0-.64-.493.382.382 0 0 1-.184-.437l.863-3.227a.382.382 0 0 1 .184-.234zm-4.203 5.578a.408.408 0 0 1 .602.46.408.408 0 1 1-.79-.21.409.409 0 0 1 .188-.25zm2.21-1.105a.394.394 0 0 1 .313-.043.411.411 0 1 1-.515.449.403.403 0 0 1 .203-.406zm-5.726 5.582l2.89-1.668a.391.391 0 0 1 .473.066c.188.191.403.36.641.492a.392.392 0 0 1 .184.438l-.864 3.226a.388.388 0 0 1-.523.258 6.95 6.95 0 0 1-2.914-2.242.39.39 0 0 1 .113-.57zm11.29-6.516a.39.39 0 0 1 .55.184 6.902 6.902 0 0 1 .484 3.648.388.388 0 0 1-.484.32l-3.227-.863a.39.39 0 0 1-.285-.379c0-.27-.035-.539-.11-.8a.392.392 0 0 1 .18-.442zm-6.466 4.3a.4.4 0 0 1 .309-.038.405.405 0 0 1 .293.5.414.414 0 0 1-.504.293.411.411 0 0 1-.098-.754zm2.262-1.304a.41.41 0 1 1 .098.75.41.41 0 0 1-.098-.75zm-1.871 2.832a.393.393 0 0 1 .188-.047c.265.004.535-.031.8-.105a.382.382 0 0 1 .442.18l1.668 2.886a.386.386 0 0 1-.184.551 6.907 6.907 0 0 1-3.648.484.385.385 0 0 1-.32-.484l.863-3.223a.407.407 0 0 1 .191-.242zm2.875-1.66c.09-.055.2-.07.3-.043l3.223.863a.39.39 0 0 1 .262.52 6.936 6.936 0 0 1-2.242 2.918.388.388 0 0 1-.57-.117l-1.668-2.887a.386.386 0 0 1 .066-.473c.192-.187.36-.406.492-.64a.363.363 0 0 1 .137-.141zm0 0" fill="#bdbdbd"/></svg>
